X: 9
M: 3/4
L: 1/8
K: F
V: 1
|:\
f2 f>ac>_e | d2 d>fA>c | (3(dcB) A2 TG2 | {G2}F4 z2 |\
|:\
c2 (3(cd_e) dc | dcBA B2 | d2 (3(def) ed | edc=B c2 |\
f2 fac_e | d2 dfAc | (3(dcB) A2 TG2 | F6 :|
V: 2 clef=bass middle=d
|:\
"F"f4 "F7"a2 | "Bb"b2 z2 "F"f2 | "Bb"B2 "F"c2 "C"C2 | "F"F2 Ac F2 |\
"F"f2 a2 f2 | "C"c2 e2 c2 | "F"f2 "C"g2 "G"G2 | "C"Hc>dcBAG :|
|:\
"F"f2 "F7"a2 f2 | "Bb"b2 "F"f2 "Bb"B2 | "G"g2 "G7"=b2 g2 | "C"c'2 "G"g2 "C"c2 |\
"F"z2 a2 "F7"f2 | "Bb"b2 z2 "F"f2 | "Bb"b2 "F"c'2 "C"c2 | "F"F6 :|

